X: 3
T:Juniper Jig
M:6/8
L:1/8
C:Charlie Sherrit
S:Chris Duncan Workshop - Nov 97
R:Jig
N:transcribed from notes given at a Scottish Fiddling workshop, November
N:1997.  The workshop was run by the Sydney Scottish Fiddlers, for more
N:information contact Trish Barker 61 2 9416 2402
N:from The Scottish Music List, Vol2 No 12
Z:Tim Barker, Nov 97
K:A
"e7"e||:"A"aga "A"ecA|"D"FAd "D"fed|"A"cee "F^m"Acc|"Bm"Bcd "E7"efg|!
"A"aga "A"ecA|"D"FAd "D"fed|"A"cec "E7"dcB|[1"A"A3 "/e7"A2 e:|[2"A"A3 "/
a7"A2=3DG||!
|:"D"FAd fed|fed agf|"A"ecA EAc|EAc cBA|!
|1"B7"GBB "E7"EBB|"B7"GBB "E7"E2B|"F^M"AGA "E7"BAB|"A"c3 "A7"AG=3DG:|!
|2"B7"GBB "E7"EBB|"B7"GBB "E7"E2f|"B7"gfe "E7"dcB|"A"A3 A2z||
